lib/brands/icons/duckduckgo.svg

<svg xmlns="http://www.w3.org/2000/svg" fill="none" aria-hidden="true" viewBox="0 0 48 48"><g id="duckduckgo-Icon"><g id="Group"><path id="Vector" fill="#DE5833" d="M24.0002 8.65521C32.4751 8.65521 39.3452 15.5254 39.3452 24.0003C39.3452 32.475 32.4751 39.3452 24.0002 39.3452C15.5255 39.3452 8.65527 32.475 8.65527 24.0003C8.65527 15.5254 15.5255 8.65521 24.0002 8.65521Z"/><path id="Vector_2" fill="#DE5833" d="M24 42C33.9411 42 42 33.9411 42 24C42 14.0589 33.9411 6 24 6C14.0589 6 6 14.0589 6 24C6 33.9411 14.0589 42 24 42ZM24 40.5C14.8873 40.5 7.5 33.1127 7.5 24C7.5 14.8873 14.8873 7.5 24 7.5C33.1127 7.5 40.5 14.8873 40.5 24C40.5 33.1127 33.1127 40.5 24 40.5Z"/><g id="Group_2"><path id="Vector_3" fill="#D5D7D8" d="M16.5249 13.6395C16.5219 13.3815 16.7094 13.237 16.9584 13.1357C16.8444 13.1544 16.7352 13.1829 16.6369 13.227C16.3773 13.3446 16.1832 13.7901 16.1851 14.001C17.4454 13.8736 19.3091 13.9617 20.6719 14.3685C20.7725 14.3544 20.8731 14.3402 20.9752 14.3285C19.6159 13.725 17.9998 13.4919 16.5249 13.6395Z"/><path id="Vector_4" fill="#D5D7D8" d="M16.7831 12.0887C16.8115 12.0836 16.8403 12.0801 16.8689 12.0753C16.597 12.109 16.4536 12.2062 16.2495 12.2397C16.4711 12.2593 17.3108 12.6512 17.8385 12.8668C17.9125 12.8387 17.9792 12.8075 18.0336 12.7706C17.76 12.7302 17.0802 12.1158 16.7831 12.0887Z"/><path id="Vector_5" fill="#D5D7D8" d="M18.0936 15.1404C18.018 15.1694 17.9462 15.1998 17.8841 15.2324C15.8297 16.3148 14.9222 18.8429 15.4631 21.8723C15.9567 24.6291 17.98 34.0481 18.9064 38.4783C19.1769 38.5734 19.4506 38.6617 19.7277 38.7418C18.9027 34.7531 16.6509 24.3011 16.1255 21.3656C15.5929 18.3793 16.1111 16.2365 18.0936 15.1404Z"/><path id="Vector_6" fill="white" d="M26.4068 36.8723C26.3729 36.8949 26.3325 36.9161 26.2894 36.9367C26.2575 37.0604 26.2087 37.1542 26.1377 37.2014C25.7134 37.4829 24.515 37.6247 23.8822 37.4829C23.7733 37.4587 23.6908 37.4188 23.6264 37.3638C22.546 37.9637 20.9924 38.7623 20.6768 38.5823C20.1839 38.2997 20.1124 34.5638 20.1839 33.647C20.236 32.9549 22.6671 34.076 23.8497 34.664C24.1111 34.4197 24.7517 34.2563 25.3186 34.2008C24.462 32.1159 23.8302 29.7312 24.2175 28.0401C23.6822 27.6671 22.9727 26.8019 23.1205 25.899C23.2343 25.2117 25.0103 23.9114 26.2678 23.8329C27.5281 23.7534 27.9209 23.7713 28.9709 23.5199C29.0234 23.5073 29.0812 23.4935 29.1416 23.4789C29.788 21.2068 28.2378 17.2538 26.5087 15.524C25.945 14.9603 25.0784 14.6055 24.1018 14.4182C23.7262 13.9028 23.1205 13.41 22.2628 12.9536C20.6703 12.1082 18.7022 11.764 16.8688 12.0753C16.8402 12.0801 16.8114 12.0836 16.783 12.0887C17.0801 12.1158 17.7599 12.7302 18.0335 12.7706C17.9791 12.8075 17.9124 12.8387 17.8384 12.8668C17.5816 12.9645 17.2326 13.0238 16.9582 13.1357C16.7092 13.237 16.5217 13.3815 16.5247 13.6395C17.9996 13.4919 19.6157 13.725 20.975 14.3285C20.8729 14.3402 20.7723 14.3543 20.6717 14.3685C19.7077 14.5041 18.8217 14.7538 18.1816 15.0915C18.1515 15.1072 18.123 15.1241 18.0935 15.1404C16.111 16.2366 15.5928 18.3793 16.1254 21.3656C16.6508 24.3011 18.9174 34.9149 19.7424 38.9036C21.0987 39.2962 22.3669 39.6099 23.8497 39.6099C25.1085 39.6099 26.6224 39.3309 27.7932 39.0449C27.382 38.2521 26.8531 37.3754 26.5271 36.7467C26.4836 36.7986 26.4493 36.8439 26.4068 36.8723ZM27.2363 21.8213C26.699 21.8213 26.2607 21.3843 26.2607 20.8439C26.2607 20.306 26.699 19.8689 27.2363 19.8689C27.7765 19.8689 28.2131 20.306 28.2131 20.8439C28.2131 21.3843 27.7765 21.8213 27.2363 21.8213ZM27.824 18.1479C27.824 18.1479 27.2086 17.7963 26.7311 17.8022C25.7497 17.8151 25.4825 18.2487 25.4825 18.2487C25.4825 18.2487 25.6472 17.2151 26.9021 17.4224C27.5825 17.5356 27.824 18.1479 27.824 18.1479ZM17.4772 19.4186C17.4772 19.4186 17.0353 18.4337 18.2131 17.9511C19.3922 17.4683 19.9664 18.2258 19.9664 18.2258C19.9664 18.2258 19.1101 17.8385 18.2777 18.3617C17.4466 18.8843 17.4772 19.4186 17.4772 19.4186ZM18.5069 21.5178C18.5069 20.8898 19.0147 20.3816 19.6435 20.3816C20.2706 20.3816 20.7791 20.8898 20.7791 21.5178C20.7791 22.1459 20.2706 22.6535 19.6435 22.6535C19.0147 22.6538 18.5069 22.1459 18.5069 21.5178Z"/><path id="Vector_7" fill="#2D4F8E" d="M20.779 21.5178C20.779 20.8898 20.2705 20.3816 19.6434 20.3816C19.0146 20.3816 18.5068 20.8898 18.5068 21.5178C18.5068 22.1459 19.0146 22.6538 19.6434 22.6535C20.2705 22.6535 20.779 22.1459 20.779 21.5178ZM20.1465 21.4343C19.9852 21.4347 19.8526 21.3021 19.8526 21.1391C19.8526 20.9757 19.9848 20.8442 20.1465 20.8442C20.3095 20.8442 20.4417 20.9757 20.4417 21.1391C20.4417 21.3021 20.3095 21.4343 20.1465 21.4343Z"/><path id="Vector_8" fill="white" d="M20.147 20.8442C19.9852 20.8442 19.853 20.9757 19.853 21.1391C19.853 21.3021 19.9857 21.4347 20.147 21.4343C20.3099 21.4343 20.4422 21.3021 20.4422 21.1391C20.4422 20.9757 20.3099 20.8442 20.147 20.8442Z"/><path id="Vector_9" fill="#2D4F8E" d="M27.2363 19.8689C26.699 19.8689 26.2607 20.306 26.2607 20.8439C26.2607 21.3843 26.699 21.8213 27.2363 21.8213C27.7766 21.8213 28.2131 21.3843 28.2131 20.8439C28.2131 20.306 27.7766 19.8689 27.2363 19.8689ZM27.6695 20.772C27.5318 20.772 27.4181 20.66 27.4181 20.5193C27.4181 20.3805 27.5318 20.2665 27.6695 20.2665C27.8131 20.2665 27.9233 20.3805 27.9233 20.5193C27.9233 20.66 27.8131 20.772 27.6695 20.772Z"/><path id="Vector_10" fill="white" d="M27.6699 20.2665C27.5322 20.2665 27.4185 20.3805 27.4185 20.5193C27.4185 20.66 27.5322 20.772 27.6699 20.772C27.8135 20.772 27.9237 20.66 27.9237 20.5193C27.9237 20.3805 27.8135 20.2665 27.6699 20.2665Z"/><path id="Vector_11" fill="url(#paint0_linear_94_17401)" d="M19.9664 18.2258C19.9664 18.2258 19.3922 17.4683 18.2131 17.9511C17.0353 18.4337 17.4772 19.4186 17.4772 19.4186C17.4772 19.4186 17.4466 18.8843 18.2776 18.3617C19.1101 17.8385 19.9664 18.2258 19.9664 18.2258Z"/><path id="Vector_12" fill="url(#paint1_linear_94_17401)" d="M26.9021 17.4224C25.6471 17.2151 25.4824 18.2487 25.4824 18.2487C25.4824 18.2487 25.7497 17.8151 26.731 17.8022C27.2086 17.7963 27.8239 18.1478 27.8239 18.1478C27.8239 18.1478 27.5824 17.5356 26.9021 17.4224Z"/><path id="Vector_13" fill="#FDD209" d="M26.2677 23.8329C25.0102 23.9114 23.2342 25.2117 23.1204 25.899C22.9727 26.802 23.6821 27.6671 24.2174 28.0401C24.2188 28.0411 24.2204 28.0424 24.2218 28.0434C24.757 28.4157 28.3204 29.6178 30.0883 29.5845C31.8583 29.55 34.765 28.4661 34.4458 27.5976C34.128 26.7288 31.2412 28.3641 28.2301 28.085C26.0002 27.8778 25.6066 26.8788 26.1003 26.1491C26.7214 25.2321 27.8526 26.3232 29.7184 25.7648C31.5871 25.208 34.2003 24.2114 35.17 23.6688C37.4119 22.4189 34.2318 21.9006 33.4807 22.2473C32.7687 22.5763 30.2905 23.2017 29.1416 23.4789C29.0811 23.4935 29.0234 23.5073 28.9708 23.5199C27.9208 23.7713 27.528 23.7534 26.2677 23.8329Z"/></g><g id="Group_3"><path id="Vector_14" fill="#65BC46" d="M23.4596 35.2271C23.4596 35.097 23.5643 34.9819 23.7304 34.8837C23.735 34.8048 23.778 34.7313 23.85 34.6639C22.6674 34.076 20.2363 32.9549 20.1842 33.647C20.1127 34.5638 20.1842 38.2997 20.6771 38.5823C20.9927 38.7623 22.5463 37.9637 23.6267 37.3638C23.315 37.0981 23.4596 36.4532 23.4596 35.2271Z"/><path id="Vector_15" fill="#65BC46" d="M26.5116 36.7406C26.5167 36.7426 26.5222 36.7447 26.5273 36.7467C27.4954 37.1203 29.4225 37.8235 29.841 37.67C30.4053 37.4543 30.264 32.945 29.6307 32.8014C29.1233 32.6888 27.1811 34.0573 26.417 34.6148C26.5522 35.1855 26.7157 36.3161 26.5116 36.7406Z"/><path id="Vector_16" fill="#43A244" d="M24.1516 37.1538C23.5167 37.0131 23.7288 36.3779 23.7288 34.898C23.7288 34.8932 23.7303 34.8885 23.7305 34.8837C23.5644 34.9819 23.4598 35.097 23.4598 35.2271C23.4598 36.4532 23.3151 37.0981 23.6269 37.3638C23.6913 37.4187 23.7738 37.4587 23.8827 37.4829C24.5154 37.6247 25.7139 37.4829 26.1382 37.2014C26.2092 37.1542 26.2579 37.0604 26.2899 36.9367C25.7933 37.1745 24.7328 37.286 24.1516 37.1538Z"/><path id="Vector_17" fill="#65BC46" d="M23.8502 34.6639C23.7782 34.7313 23.7352 34.8048 23.7306 34.8837C23.7303 34.8885 23.7289 34.8932 23.7289 34.898C23.7289 36.3779 23.5167 37.0131 24.1516 37.1538C24.7328 37.286 25.7933 37.1745 26.2899 36.9367C26.333 36.9161 26.3734 36.8949 26.4073 36.8723C26.4498 36.8439 26.4841 36.7985 26.5119 36.7406C26.716 36.3161 26.5525 35.1855 26.4173 34.6148C26.3875 34.4892 26.3592 34.3903 26.3365 34.3324C26.2782 34.1881 25.8289 34.1509 25.3191 34.2008C24.7522 34.2563 24.1116 34.4197 23.8502 34.6639Z"/></g></g></g><defs><linearGradient id="paint0_linear_94_17401" x1="19.2211" x2="17.396" y1="19.4186" y2="19.4186" gradientUnits="userSpaceOnUse"><stop stop-color="#394A9F"/><stop offset="1" stop-color="#6176B9"/></linearGradient><linearGradient id="paint1_linear_94_17401" x1="27.145" x2="25.4824" y1="18.2487" y2="18.2487" gradientUnits="userSpaceOnUse"><stop stop-color="#394A9F"/><stop offset="1" stop-color="#6176B9"/></linearGradient></defs></svg>

<svg xmlns="http://www.w3.org/2000/svg" fill="none" aria-hidden="true" viewBox="0 0 48 48"><path fill="#DE5833" d="M24 8.655c8.475 0 15.345 6.87 15.345 15.345 0 8.475-6.87 15.345-15.345 15.345-8.474 0-15.345-6.87-15.345-15.345 0-8.475 6.87-15.345 15.345-15.345Z"/><path fill="#DE5833" d="M24 42c9.941 0 18-8.059 18-18S33.941 6 24 6 6 14.059 6 24s8.059 18 18 18Zm0-1.5c-9.113 0-16.5-7.387-16.5-16.5S14.887 7.5 24 7.5 40.5 14.887 40.5 24 33.113 40.5 24 40.5Z"/><path fill="#D5D7D8" d="M16.525 13.64c-.003-.258.184-.403.434-.504a1.301 1.301 0 0 0-.322.091c-.26.118-.454.563-.452.774 1.26-.127 3.124-.04 4.487.367.1-.014.201-.028.303-.04-1.359-.603-2.975-.836-4.45-.688Zm.258-1.551.086-.014c-.272.034-.415.131-.62.165.222.02 1.062.411 1.59.627a.95.95 0 0 0 .195-.096c-.274-.04-.954-.655-1.25-.682Zm1.311 3.051a2.35 2.35 0 0 0-.21.092c-2.054 1.083-2.962 3.61-2.42 6.64.493 2.757 2.516 12.176 3.443 16.606.27.095.544.184.821.264-.825-3.989-3.077-14.44-3.602-17.376-.533-2.987-.015-5.13 1.968-6.226Z"/><path fill="#fff" d="M26.407 36.872a.967.967 0 0 1-.117.065c-.032.123-.081.217-.152.264-.424.282-1.623.424-2.256.282a.574.574 0 0 1-.255-.12c-1.08.6-2.634 1.4-2.95 1.22-.493-.283-.564-4.02-.493-4.936.052-.692 2.483.429 3.666 1.017.261-.244.902-.408 1.469-.463-.857-2.085-1.489-4.47-1.101-6.16-.536-.374-1.245-1.239-1.097-2.142.114-.687 1.89-1.988 3.147-2.066 1.26-.08 1.653-.062 2.703-.313l.17-.041c.647-2.272-.903-6.225-2.632-7.955-.564-.564-1.43-.918-2.407-1.106-.375-.515-.981-1.008-1.839-1.464-1.592-.846-3.56-1.19-5.394-.879l-.086.014c.297.027.977.641 1.25.682a.95.95 0 0 1-.194.096c-.257.097-.606.157-.88.269-.25.101-.437.246-.434.504 1.475-.148 3.09.085 4.45.688-.102.012-.203.026-.303.04-.964.136-1.85.386-2.49.723l-.088.05c-1.983 1.096-2.501 3.238-1.968 6.225.525 2.935 2.792 13.549 3.617 17.538 1.356.392 2.624.706 4.107.706 1.259 0 2.773-.28 3.943-.565-.41-.793-.94-1.67-1.266-2.298-.043.052-.078.097-.12.125Zm.83-15.05a.977.977 0 1 1 .003-1.955.977.977 0 0 1-.003 1.954Zm.587-3.674s-.615-.352-1.093-.346c-.981.013-1.248.447-1.248.447s.164-1.034 1.42-.827c.68.114.921.726.921.726Zm-10.347 1.27s-.442-.984.736-1.467c1.18-.483 1.754.275 1.754.275s-.857-.387-1.69.136c-.83.522-.8 1.057-.8 1.057Zm1.03 2.1a1.135 1.135 0 1 1 2.27-.002 1.135 1.135 0 0 1-2.27.002Z"/><path fill="#2D4F8E" d="M20.78 21.518a1.136 1.136 0 1 0-2.272-.001 1.136 1.136 0 0 0 2.271 0Zm-.633-.084a.295.295 0 1 1 .002-.59.295.295 0 0 1-.002.59Z"/><path fill="#fff" d="M20.147 20.844a.294.294 0 1 0 0 .59.294.294 0 0 0 0-.59Z"/><path fill="#2D4F8E" d="M27.237 19.869a.977.977 0 1 0 .002 1.953.977.977 0 0 0-.002-1.953Zm.433.903a.253.253 0 0 1 0-.505c.143 0 .254.114.254.252a.25.25 0 0 1-.254.253Z"/><path fill="#fff" d="M27.67 20.267a.253.253 0 0 0 0 .505.25.25 0 0 0 .254-.253.252.252 0 0 0-.254-.252Z"/><path fill="url(#a)" d="M19.967 18.226s-.575-.758-1.754-.275c-1.178.483-.736 1.468-.736 1.468s-.03-.535.8-1.057c.833-.523 1.69-.136 1.69-.136Z"/><path fill="url(#b)" d="M26.902 17.422c-1.255-.207-1.42.827-1.42.827s.268-.434 1.25-.447c.477-.006 1.092.346 1.092.346s-.241-.612-.922-.726Z"/><path fill="#FDD209" d="M26.268 23.833c-1.257.078-3.033 1.379-3.147 2.066-.148.903.562 1.768 1.097 2.141l.004.003c.535.373 4.099 1.575 5.867 1.541 1.77-.034 4.676-1.118 4.357-1.986-.318-.87-3.204.766-6.215.487-2.23-.207-2.624-1.206-2.13-1.936.62-.917 1.752.174 3.618-.384 1.868-.557 4.482-1.554 5.451-2.096 2.242-1.25-.938-1.768-1.689-1.422-.712.33-3.19.955-4.339 1.232l-.17.04c-1.05.252-1.444.234-2.704.314Z"/><path fill="#65BC46" d="M23.46 35.227c0-.13.104-.245.27-.343a.333.333 0 0 1 .12-.22c-1.183-.588-3.614-1.71-3.666-1.017-.071.917 0 4.653.493 4.935.316.18 1.87-.618 2.95-1.218-.312-.266-.167-.91-.167-2.137Zm3.052 1.513.015.007c.968.373 2.896 1.077 3.314.923.564-.216.423-4.725-.21-4.869-.508-.112-2.45 1.256-3.214 1.814.135.57.299 1.701.095 2.126Z"/><path fill="#43A244" d="M24.151 37.154c-.634-.14-.422-.776-.422-2.256l.001-.014c-.166.098-.27.213-.27.343 0 1.226-.145 1.871.167 2.137a.576.576 0 0 0 .256.119c.632.142 1.83 0 2.255-.282.071-.047.12-.14.152-.264-.497.238-1.557.349-2.139.217Z"/><path fill="#65BC46" d="M23.85 34.664a.334.334 0 0 0-.12.22l-.001.014c0 1.48-.212 2.115.422 2.256.582.132 1.642.02 2.139-.217a.967.967 0 0 0 .117-.065.321.321 0 0 0 .105-.131c.204-.425.04-1.555-.095-2.126a2.378 2.378 0 0 0-.08-.283c-.06-.144-.508-.181-1.018-.131-.567.055-1.208.219-1.469.463Z"/><defs><linearGradient id="a" x1="19.221" x2="17.396" y1="19.419" y2="19.419" gradientUnits="userSpaceOnUse"><stop stop-color="#394A9F"/><stop offset="1" stop-color="#6176B9"/></linearGradient><linearGradient id="b" x1="27.145" x2="25.483" y1="18.249" y2="18.249" gradientUnits="userSpaceOnUse"><stop stop-color="#394A9F"/><stop offset="1" stop-color="#6176B9"/></linearGradient></defs></svg>
